X:1703
T:The Shaskeen Clog
M:C|
L:1/8
N:"collected by McFadden"
B:O'Neill's 1703
R:Hornpipe
Z:"Transcribed by Bob Safranek, rjs@gsp.org"
K:G
DF|G3   B A2   Ac|dged cAAc|BdBG 3ABc AF|GBAG FDEF|
TGFGB A2 3ABc|dged cAAg|Tfefa   ecAc|BGAF G2    :|
|: Bc|dgagf g2   fg|abag fddc|BcBG 3ABc AF|GBAG FD D2|
dgagf g2   fg|abag fdde|Tfefa   ecAc|BGAF G2    :|
